X: 116
T: Ateş Alevde Değil...
C: Özgen Gürbüz
O: Turkey
F: http://compmusic.upf.edu/node/140
N: nihavent--sarki--yuruksemai_ii--ates_alevde--ozgen_gurbuz
N: makam= nihavent
N: form= sarki
N: usul= yuruksemai_ii = 6/8
M: 6/8
L: 1/16
K: C _B _e  
Q: 1/4=228
%%MIDI tuningsystem comma53
d4 g2^f2 g4  | a3g ^f2e2 f4  | e4 ^f2e2 f4  | \
w:  ARANAĞME  |   |   | 
g3^f e2d2 e4  | d4 e2d2 e4  | 
w:   |   | 
^f3e d2c2 d4  | g4 ^f2a2 g2f2  | e2^fg fed2 d4  | \
w:   |   |   | 
d4 g2^f2 g4  | 
w:  ARANAĞME  | 
a3g ^f2e2 f4  | e4 ^f2e2 f4  | g3^f e2d2 e4  | \
w:   |   |   | 
d4 e2d2 e4  | ^f3e d2c2 d4  | 
w:   |   | 
g4 ^f2a2 g2f2  | e2^fg fed2 d4  | B3c d2B2 c2d2  | \
w:   |   |   | 
e3d c2_7/8B2 c4  | 
w:   | 
A3B c2A2 B2c2  | d3c B2A2 B4  | G3A B2G2 A2B2  | \
w:   |   |   | 
c2B2 A2{B}G2 A4  | 
w:   | 
^F3G A2F2 G2A2  | B3c d2B2 c2d2  | e3d c2_7/8B2 c4  | \
w:   |   |   | 
A3B c2A2 B2c2  | 
w:   | 
d3c B2A2 B4  | G3A B2G2 A2B2  | c2B2 A2{B}G2 A4  | \
w:   |   |   | 
^F3G A2F2 G2A2  | 
w:   | 
d2g8g2  | g4 a2{b}g2 ^f4  | e2^f4f6  | ^f2f2 g2f2 .e4  | \
w:  A teş  a  |  lev de  *  de ğil   |  a sıl  köz  |  de  giz *  li dir    | 
d2g8g2  | g4 a2{b}g2 ^f4  | 
w:  A teş  a  |  lev de  *  de ğil   | 
e2^f4f6  | ^f2f2 g2f2 .e4  | B2c2 d2d6  | \
w:  a sıl  köz  |  de  giz *  li dir    |  Gü zel *  lik   | 
d4 e2d2 c4  | A2B2 c2c6  | c2d4c2 .B4  | 
w:  göz de  de ğil   |  a sıl  *  öz  |  de  giz li dir    | 
B2c2 d2d6  | d4 e2d2 c4  | A2B2 c2c6  | \
w:  Gü zel *  lik   |  göz de  de ğil   |  a sıl  *  öz  | 
c2d4c2 .B4  | G4 A2B4B2  | B4 c2B2 A4  | 
w:  de  giz li dir    |  Ren gi  de ğil   |  göz *  le rin   | 
z2^F2 G2A2 A4  | A4 B2A2 G4  | G4 A2B4B2  | \
w:  ba kı şı dır   |  mest_ *  e den    |  Göz den  kal be   | 
z4 c2B2 {c}A4  | z2^F2 G2A2 A4  | 
w:  sü zü *  lüp   |  a kı şı dır   | 
A4 B2A2 G4  | G4 A2B4B2  | B4 c2B2 A4  | \
w:  mest_ *  e den    |  Ren gi  de ğil   |  göz *  le rin   | 
z2^F2 G2A2 A4  | A4 B2A2 G4  | 
w:  ba kı şı dır   |  mest_ *  e den    | 
G4 A2B4B2  | z4 c2B2 {c}A4  | z2^F2 G2A2 A4  | \
w:  Göz den  kal be   |  sü zü *  lüp   |  a kı şı dır   | 
A4 B2A2 G4  | d4 g2^f2 g4  | 
w:  mest_ *  e den    |  ARANAĞME  | 
a3g ^f2e2 f4  | e4 ^f2e2 f4  | g3^f e2d2 e4  | \
w:   |   |   | 
d4 e2d2 e4  | ^f3e d2c2 d4  | 
w:   |   | 
g4 ^f2a2 g2f2  | e2^fg fed2 d4  | d4 g2^f2 g4  | \
w:   |   |  ARANAĞME  | 
a3g ^f2e2 f4  | 
w:   | 
e4 ^f2e2 f4  | g3^f e2d2 e4  | d4 e2d2 e4  | \
w:   |   |   | 
^f3e d2c2 d4  | g4 ^f2a2 g2f2  | 
w:   |   | 
e2^fg fed2 d4  | B3c d2B2 c2d2  | e3d c2_7/8B2 c4  | \
w:   |   |   | 
A3B c2A2 B2c2  | 
w:   | 
d3c B2A2 B4  | G3A B2G2 A2B2  | c2B2 A2{B}G2 A4  | \
w:   |   |   | 
^F3G A2F2 G2A2  | 
w:   | 
B3c d2B2 c2d2  | e3d c2_7/8B2 c4  | A3B c2A2 B2c2  | \
w:   |   |   | 
d3c B2A2 B4  | 
w:   | 
G3A B2G2 A2B2  | c2B2 A2{B}G2 A4  | ^F3G A2F2 G2A2  | \
w:   |   |   | 
b4 b2b6  | b2a2 g2{a}^f2 g4  | 
w:  Nağ me  gön  |  lün_ *  e *  se ri   | 
a4 a2a6  | a2g2 ^f2e2 d4  | b4 b2b6  | b2a2 g2{a}^f2 g4  | \
w:  san ma  saz  |  da  giz *  li dir    |  Nağ me  gön  |  lün_ *  e *  se ri   | 
a4 a2a6  | a2g2 ^f2e2 d4  | 
w:  san ma  saz  |  da  giz *  li dir    | 
B2A2 G2^F2 G4  | f4 f2f6  | f2_1/4e2 f2g2 f4  | \
w:   |  Bes te nin   |  gü zel *  li ği   | 
e4 e2e4d2  | f2e2 d2^c2 d4  | 
w:  ön ce  söz  |  de  giz *  li dir    | 
f4 f2f6  | f2_1/4e2 f2g2 f4  | e4 e2e4d2  | \
w:  Bes te nin   |  gü zel *  li ği   |  ön ce  söz  | 
f2e2 d2c2 B4  | b2a2 g2^f2 g4  | 
w:  de  giz *  li dir    |  SAZ  | 
G2A2 B2B2 B4  | z2c2 B2A2 A4  | z2^F2 G2A2 A4  | \
w:  Gü zel  *  sö zün   |  gö nül *  den   |  çı kı şı dır   | 
A4 B2A2 G4  | G2A4B6  | 
w:  mest_ *  e den    |  Du dak tan   | 
B4 c2B2 A4  | z2^F2 G2A2 A4  | A4 B2A2 G4  | \
w:  kal be  gi dip   |  ya kı şı dır   |  mest_ *  e den    | 
G2A2 B2B2 B4  | z2c2 B2A2 A4  | 
w:  Gü zel  *  sö zün   |  gö nül *  den   | 
z2^F2 G2A2 A4  | A4 B2A2 G4  | G2A4B6  | \
w:  çı kı şı dır   |  mest_ *  e den    |  Du dak tan   | 
B4 c2B2 A4  | z2^f2 g2a2 a4  | 
w:  kal be  gi dip   |  ya kı şı dır   | 
a4 b2a2 g4  | .B2.c2 .d2.B2 .c2.d2  | \
w:  mest_ *  e den    |  SAZ  | 
.e2.d2 .c2.=B2 .c4  | .A2.B2 .c2.A2 .B2.c2  | 
w:   |   | 
.d2.c2 .B2.A2 .G4  | |


